src/assets/images/rename-icon.svg

<svg width="19" height="19" viewBox="0 0 19 19" fill="none" xmlns="http://www.w3.org/2000/svg">
<path fill-rule="evenodd" clip-rule="evenodd" d="M12.8785 2.4083C13.3194 1.96742 14.0331 1.96742 14.474 2.4083L17.1716 5.10595C17.6125 5.54683 17.6125 6.2605 17.1716 6.70139L8.17572 15.6973C8.0931 15.7799 7.98592 15.8335 7.87025 15.85L3.7526 16.4382C3.58434 16.4623 3.41458 16.4057 3.2944 16.2855C3.17421 16.1653 3.11763 15.9956 3.14166 15.8273L3.7299 11.7097C3.74642 11.594 3.80002 11.4868 3.88263 11.4042L12.8785 2.4083ZM13.7103 3.17197C13.6912 3.15286 13.6613 3.15286 13.6422 3.17197L4.77359 12.0406L4.31263 15.2673L7.53933 14.8063L16.4079 5.93771C16.427 5.91859 16.427 5.88874 16.4079 5.86962L13.7103 3.17197Z" fill="#9FA6B2"/>
<path fill-rule="evenodd" clip-rule="evenodd" d="M15.8229 3.75704C16.0338 3.96792 16.0338 4.30983 15.8229 4.52071L8.76412 11.5795C8.55324 11.7904 8.21133 11.7904 8.00045 11.5795C7.78956 11.3687 7.78956 11.0267 8.00045 10.8159L15.0593 3.75704C15.2702 3.54616 15.6121 3.54616 15.8229 3.75704Z" fill="#9FA6B2"/>
<path fill-rule="evenodd" clip-rule="evenodd" d="M3.88277 11.4043C4.09365 11.1934 4.43556 11.1934 4.64645 11.4043L8.17586 14.9337C8.38674 15.1446 8.38674 15.4865 8.17586 15.6973C7.96498 15.9082 7.62307 15.9082 7.41218 15.6973L3.88277 12.1679C3.67189 11.957 3.67189 11.6151 3.88277 11.4043Z" fill="#9FA6B2"/>
</svg>

<svg xmlns="http://www.w3.org/2000/svg" width="19" height="19" fill="none"><path fill="#9FA6B2" fill-rule="evenodd" d="M12.879 2.408c.44-.44 1.154-.44 1.595 0l2.698 2.698c.44.44.44 1.155 0 1.595l-8.996 8.996a.54.54 0 0 1-.306.153l-4.117.588a.54.54 0 0 1-.611-.61l.588-4.118a.54.54 0 0 1 .153-.306l8.995-8.996Zm.831.764a.048.048 0 0 0-.068 0l-8.868 8.869-.461 3.226 3.226-.46 8.869-8.87a.048.048 0 0 0 0-.067L13.71 3.172Z" clip-rule="evenodd"/><path fill="#9FA6B2" fill-rule="evenodd" d="M15.823 3.757a.54.54 0 0 1 0 .764l-7.059 7.058A.54.54 0 1 1 8 10.816l7.06-7.059a.54.54 0 0 1 .763 0ZM3.883 11.404a.54.54 0 0 1 .763 0l3.53 3.53a.54.54 0 1 1-.764.763l-3.53-3.53a.54.54 0 0 1 0-.763Z" clip-rule="evenodd"/></svg>
